Yaru++/apps/scalable/org.gnome.FeedReader.svg

<svg enable-background="new" height="256" viewBox="0 0 256 256" width="256" xmlns="http://www.w3.org/2000/svg" xmlns:xlink="http://www.w3.org/1999/xlink">
  <linearGradient id="linearGradient4358" gradientUnits="userSpaceOnUse" x1="88" x2="488" y1="88" y2="488">
    <stop offset="0" stop-opacity=".588235"/>
    <stop offset="1" stop-opacity=".205556"/>
  </linearGradient>
  <filter id="filter4380" color-interpolation-filters="sRGB" height="1.088" width="1.106" x="-.05" y="-.04">
    <feGaussianBlur stdDeviation="8.48"/>
  </filter>
  <filter id="filter4346" color-interpolation-filters="sRGB" height="1.022" width="1.026" x="-.01" y="-.01">
    <feGaussianBlur stdDeviation="2.12"/>
  </filter>
  <path d="m141.84323 74c-70.59344 0-78.18921 7.250835-77.84323 77.98706v146.01294 146.01294c-.34598 70.73623 7.24979 77.98706 77.84323 77.98706h292.31354c70.59344 0 79.78033-7.27652 77.84323-77.98706v-146.01294-146.01294c0-70.737067-7.24979-77.98706-77.84323-77.98706z" filter="url(#filter4346)" opacity=".1" transform="matrix(.5 0 0 .5 -14.116488 -20.825537)"/>
  <path d="m141.84323 74c-70.59344 0-78.18921 7.250835-77.84323 77.98706v146.01294 146.01294c-.34598 70.73623 7.24979 77.98706 77.84323 77.98706h292.31354c70.59344 0 79.78033-7.27652 77.84323-77.98706v-146.01294-146.01294c0-70.737067-7.24979-77.98706-77.84323-77.98706z" fill="url(#linearGradient4358)" filter="url(#filter4380)" opacity=".3" transform="matrix(.5 0 0 .5 -14.116488 -20.825235)"/>
  <path d="m55.695112 13.174464c-36.098811 0-39.983003 3.690159-39.806081 39.689839v74.310167 74.31016c-.176922 35.99969 3.70727 39.68984 39.806081 39.68984h148.387318c36.09881 0 40.77464-3.70276 39.80608-39.68984v-74.31016-74.310167c0-36.00011-3.70727-39.689839-39.80608-39.689839z" opacity=".2"/>
  <path d="m202.95649 15.174464c35.29673 0 39.09461 3.625419 38.92162 38.993529v73.006477 73.00647c.17299 35.36812-3.62489 38.99353-38.92162 38.99353h-146.156758c-35.296716 0-38.921616-3.625-38.921616-38.99353v-73.00647-73.006477c0-35.36853 3.6249-38.993529 38.921616-38.993529z" fill="#fb7c38"/>
  <path d="m56.805392 15.174464c-35.296728 0-39.09487 3.626029-38.92188 38.994139v2c-.17299-35.36811 3.625152-38.99414 38.92188-38.99414h146.156238c35.29673 0 38.92188 3.62561 38.92188 38.99414v-2c0-35.36853-3.62515-38.994139-38.92188-38.994139z" fill="#fff" opacity=".3"/>
  <path d="m56.810792 239.17447c-35.296731 0-39.094875-3.62603-38.921885-38.99414v-2c-.17299 35.36811 3.625154 38.99414 38.921885 38.99414h146.156238c35.29673 0 38.92188-3.62561 38.92188-38.99414v2c0 35.36853-3.62515 38.99414-38.92188 38.99414z" opacity=".2"/>
  <path d="m-1263.6441 630.72422c0-12.27851 4.2408-22.5866 12.7214-30.92435 8.4811-8.48876 18.8552-12.73334 31.1221-12.73367 11.964.00033 22.1109 4.24491 30.4405 12.73367 8.4808 8.33775 12.7212 18.64584 12.7212 30.92435 0 11.97592-4.2404 22.20826-12.7212 30.69701-8.3296 8.33775-18.4765 12.50651-30.4405 12.50626-12.2669.00025-22.641-4.16851-31.1221-12.50626-8.4806-8.33717-12.7214-18.56942-12.7214-30.69701m-2.5315-197.16033v72.62829c92.8075 0 168.1872 75.49828 168.1872 168.45189h72.8935c0-133.14977-108.1402-241.08018-241.0807-241.08018zm.125-158.91982v80.2821c176.2113 0 319.28598 143.21178 319.28598 319.59198h80.589c.00042-220.7925-179.29338-399.87408-399.87438-399.87408z" fill="#fff" transform="matrix(.25 0 0 .25 346.543899 57.338983)"/>
</svg>

<?xml version="1.0" encoding="UTF-8" standalone="no"?>
<svg
   xmlns:dc="http://purl.org/dc/elements/1.1/"
   xmlns:cc="http://creativecommons.org/ns#"
   xmlns:rdf="http://www.w3.org/1999/02/22-rdf-syntax-ns#"
   xmlns:svg="http://www.w3.org/2000/svg"
   xmlns="http://www.w3.org/2000/svg"
   xmlns:xlink="http://www.w3.org/1999/xlink"
   xmlns:sodipodi="http://sodipodi.sourceforge.net/DTD/sodipodi-0.dtd"
   xmlns:inkscape="http://www.inkscape.org/namespaces/inkscape"
   style="enable-background:new"
   width="256"
   height="256"
   version="1.0"
   viewBox="0 0 256 256"
   id="svg47"
   sodipodi:docname="wps-office-wppmain.svg"
   inkscape:version="0.92.4 (5da689c313, 2019-01-14)">
  <metadata
     id="metadata51">
    <rdf:RDF>
      <cc:Work
         rdf:about="">
        <dc:format>image/svg+xml</dc:format>
        <dc:type
           rdf:resource="http://purl.org/dc/dcmitype/StillImage" />
        <dc:title>
  Adwaita Icon Template
 </dc:title>
      </cc:Work>
    </rdf:RDF>
  </metadata>
  <sodipodi:namedview
     pagecolor="#ffffff"
     bordercolor="#666666"
     borderopacity="1"
     objecttolerance="10"
     gridtolerance="10"
     guidetolerance="10"
     inkscape:pageopacity="0"
     inkscape:pageshadow="2"
     inkscape:window-width="1920"
     inkscape:window-height="1016"
     id="namedview49"
     showgrid="false"
     showguides="false"
     inkscape:zoom="0.921875"
     inkscape:cx="128"
     inkscape:cy="128"
     inkscape:window-x="0"
     inkscape:window-y="27"
     inkscape:window-maximized="1"
     inkscape:current-layer="g54" />
  <title
     id="title4162">
  Adwaita Icon Template
 </title>
  <defs
     id="defs27">
    <linearGradient
       id="linearGradient1115">
      <stop
         id="stop1103"
         offset="0"
         style="stop-color:#d5d3cf" />
      <stop
         style="stop-color:#e3e2df"
         id="stop1105"
         offset=".038" />
      <stop
         style="stop-color:#c0bfbc"
         id="stop1107"
         offset=".077" />
      <stop
         style="stop-color:#c0bfbc"
         id="stop1109"
         offset=".923" />
      <stop
         style="stop-color:#e3e2df"
         id="stop1111"
         offset=".962" />
      <stop
         id="stop1113"
         offset="1"
         style="stop-color:#d5d3cf" />
    </linearGradient>
    <linearGradient
       id="linearGradient6058">
      <stop
         style="stop-color:#ffffff"
         id="stop6054"
         offset="0" />
      <stop
         style="stop-color:#f6f5f4"
         id="stop6056"
         offset="1" />
    </linearGradient>
    <linearGradient
       id="paint3_linear-2-6-5"
       x2="1"
       gradientTransform="matrix(0,6,-12,0,-64,209.99687)"
       gradientUnits="userSpaceOnUse">
      <stop
         id="stop91-0-7-4"
         stop-color="#C01C27" />
      <stop
         id="stop93-2-5-7"
         offset="1"
         stop-color="#E01B24" />
    </linearGradient>
    <linearGradient
       id="linearGradient1097"
       x1="43.844"
       x2="-60"
       y1="234"
       y2="234"
       gradientTransform="matrix(1.0015061,0,0,0.99993452,72.09037,56.015192)"
       gradientUnits="userSpaceOnUse"
       xlink:href="#linearGradient1115" />
    <radialGradient
       id="radialGradient1099"
       cx="-24.239"
       cy="225.596"
       r="24"
       fx="-24.239"
       fy="225.596"
       gradientTransform="matrix(1.757743,-9.5621778e-8,3.7652438e-8,1.9495846,106.60563,-336.54495)"
       gradientUnits="userSpaceOnUse"
       xlink:href="#linearGradient6058" />
    <linearGradient
       id="linearGradient1383"
       x2="1"
       gradientTransform="matrix(0,6,-12,0,-264,209.99687)"
       gradientUnits="userSpaceOnUse"
       xlink:href="#paint3_linear-2-6-5" />
    <linearGradient
       id="linearGradient4358"
       x1="88"
       x2="488"
       y1="88"
       y2="488"
       gradientUnits="userSpaceOnUse"
       xlink:href="#linearGradient4360" />
    <linearGradient
       id="linearGradient4360">
      <stop
         id="stop4362"
         offset="0"
         style="stop-color:#000000;stop-opacity:0.58823532" />
      <stop
         id="stop4366"
         offset="1"
         style="stop-color:#000000;stop-opacity:0.20555556" />
    </linearGradient>
    <filter
       style="color-interpolation-filters:sRGB"
       id="filter4380"
       width="1.106"
       height="1.088"
       x="-.05"
       y="-.04">
      <feGaussianBlur
         id="feGaussianBlur4382"
         stdDeviation="8.48" />
    </filter>
    <filter
       style="color-interpolation-filters:sRGB"
       id="filter4346"
       width="1.026"
       height="1.022"
       x="-.01"
       y="-.01">
      <feGaussianBlur
         id="feGaussianBlur4348"
         stdDeviation="2.12" />
    </filter>
    <linearGradient
       id="linearGradient987">
      <stop
         style="stop-color:#e66100;stop-opacity:1"
         offset="0"
         id="stop975" />
      <stop
         offset=".042"
         id="stop977"
         style="stop-color:#ffbe6f;stop-opacity:1" />
      <stop
         style="stop-color:#e66100;stop-opacity:1"
         offset=".083"
         id="stop979" />
      <stop
         offset=".917"
         id="stop981"
         style="stop-color:#e66100;stop-opacity:1" />
      <stop
         style="stop-color:#ffbe6f;stop-opacity:1"
         offset=".958"
         id="stop983" />
      <stop
         style="stop-color:#c64600;stop-opacity:1"
         offset="1"
         id="stop985" />
    </linearGradient>
    <radialGradient
       xlink:href="#linearGradient897"
       gradientUnits="userSpaceOnUse"
       gradientTransform="matrix(1.4599987,-1.4599987,0.02960147,0.02960147,-490.51932,677.57967)"
       fy="151"
       fx="405"
       r="48"
       cy="151"
       cx="405"
       id="radialGradient902" />
    <linearGradient
       id="linearGradient897">
      <stop
         style="stop-color:#f6d32d"
         offset="0"
         id="stop893" />
      <stop
         style="stop-color:#fcf9c0"
         offset="1"
         id="stop895" />
    </linearGradient>
    <clipPath
       clipPathUnits="userSpaceOnUse"
       id="clipPath2213">
      <rect
         id="rect14"
         style="fill:none;stroke:#000000"
         ry="8"
         rx="8"
         y="-188"
         x="160"
         height="56"
         width="16" />
    </clipPath>
    <linearGradient
       xlink:href="#linearGradient987"
       gradientUnits="userSpaceOnUse"
       y2="204"
       y1="204"
       x2="45.963"
       x1="461.963"
       id="linearGradient973" />
  </defs>
  <path
     style="opacity:0.1;filter:url(#filter4346)"
     d="M 141.84323,74 C 71.24979,74 63.65402,81.250835 64,151.98706 V 298 444.01294 C 63.65402,514.74917 71.24979,522 141.84323,522 H 434.15677 C 504.75021,522 513.9371,514.72348 512,444.01294 V 298 151.98706 C 512,81.249993 504.75021,74 434.15677,74 Z"
     transform="matrix(0.5,0,0,0.5,-14.116488,-20.825537)"
     id="path29" />
  <path
     d="M 141.84323,74 C 71.24979,74 63.65402,81.250835 64,151.98706 V 298 444.01294 C 63.65402,514.74917 71.24979,522 141.84323,522 H 434.15677 C 504.75021,522 513.9371,514.72348 512,444.01294 V 298 151.98706 C 512,81.249993 504.75021,74 434.15677,74 Z"
     transform="matrix(0.5,0,0,0.5,-14.116488,-20.825235)"
     style="opacity:0.3;fill:url(#linearGradient4358);filter:url(#filter4380)"
     id="path31" />
  <path
     style="opacity:0.2"
     d="m 55.695112,13.174464 c -36.098811,0 -39.983003,3.690159 -39.806081,39.689839 v 74.310167 74.31016 c -0.176922,35.99969 3.70727,39.68984 39.806081,39.68984 H 204.08243 c 36.09881,0 40.77464,-3.70276 39.80608,-39.68984 V 127.17447 52.864303 c 0,-36.00011 -3.70727,-39.689839 -39.80608,-39.689839 z"
     id="path33" />
  <path
     style="fill:#fb7c38"
     d="m 202.95649,15.174464 c 35.29673,0 39.09461,3.625419 38.92162,38.993529 v 73.006477 73.00647 c 0.17299,35.36812 -3.62489,38.99353 -38.92162,38.99353 H 56.799732 c -35.296716,0 -38.921616,-3.625 -38.921616,-38.99353 V 127.17447 54.167993 c 0,-35.36853 3.6249,-38.993529 38.921616,-38.993529 z"
     id="path35" />
  <path
     style="opacity:0.3;fill:#ffffff"
     d="m 56.805392,15.174464 c -35.296728,0 -39.09487,3.626029 -38.92188,38.994139 v 2 c -0.17299,-35.36811 3.625152,-38.99414 38.92188,-38.99414 H 202.96163 c 35.29673,0 38.92188,3.62561 38.92188,38.99414 v -2 c 0,-35.36853 -3.62515,-38.994139 -38.92188,-38.994139 z"
     id="path37" />
  <path
     style="opacity:0.2"
     d="m 56.810792,239.17447 c -35.296731,0 -39.094875,-3.62603 -38.921885,-38.99414 v -2 c -0.17299,35.36811 3.625154,38.99414 38.921885,38.99414 H 202.96703 c 35.29673,0 38.92188,-3.62561 38.92188,-38.99414 v 2 c 0,35.36853 -3.62515,38.99414 -38.92188,38.99414 z"
     id="path39" />
  <g
     style="enable-background:new"
     id="g937"
     transform="translate(346.03466,4.338983)">
    <g
       transform="translate(0,-172)"
       id="layer1">
      <g
         id="layer2"
         style="display:none">
        <text
           style="font-size:5.33333349px;line-height:125%;font-family:Cantarell"
           xml:space="preserve"
           y="128.64999"
           x="-0.050000001"
           id="context">     <tspan
   y="128.64999"
   x="-0.050000001"
   id="tspan2716"
   style="font-size:5.33333349px">apps</tspan>   </text>
        <text
           xml:space="preserve"
           y="137.23"
           x="-0.25"
           id="text3021"
           style="font-weight:bold;font-size:5.33333349px;line-height:125%;font-family:Cantarell">     <tspan
   y="137.23"
   x="-0.25"
   id="tspan3023"
   style="font-size:5.33333349px">org.gnome.Notes</tspan>   </text>
        <rect
           id="rect24"
           style="fill:#f0f0f0"
           y="172"
           x="0"
           height="128"
           width="128" />
        <rect
           id="rect26"
           y="172"
           x="160"
           height="16"
           width="16"
           style="fill:#f0f0f0" />
        <text
           style="font-weight:bold;font-size:4px;line-height:125%;font-family:Cantarell"
           xml:space="preserve"
           y="164"
           x="0"
           id="text863">     <tspan
   style="font-size:4px"
   y="164"
   x="0"
   id="tspan861">Hicolor</tspan>   </text>
        <text
           xml:space="preserve"
           y="164"
           x="160"
           id="text867"
           style="font-weight:bold;font-size:4px;line-height:125%;font-family:Cantarell">     <tspan
   y="164"
   x="160"
   id="tspan865"
   style="font-size:4px">Symbolic</tspan>   </text>
      </g>
      <g
         id="layer3"
         style="display:none">
        <circle
           id="circle33"
           r="59.504002"
           cy="236"
           cx="64"
           style="opacity:0.1;fill:none;stroke:#000000;stroke-width:0.99000001;stroke-dasharray:0.99000001, 0.99000001" />
        <rect
           id="rect35"
           ry="7.9289999"
           rx="8.7010002"
           y="180.5"
           x="20.5"
           height="111.01"
           width="87.010002"
           style="opacity:0.1;fill:none;stroke:#000000;stroke-width:0.99000001;stroke-dasharray:0.99000001, 0.99000001" />
        <rect
           id="rect37"
           ry="7.9239998"
           rx="7.9239998"
           y="184.5"
           x="12.49"
           height="103.01"
           width="103.01"
           style="opacity:0.1;fill:none;stroke:#000000;stroke-width:0.99000001;stroke-dasharray:0.99000001, 0.99000001" />
        <rect
           id="rect39"
           ry="8.7010002"
           rx="7.9289999"
           y="200.5"
           x="8.4899998"
           height="87.010002"
           width="111.01"
           style="opacity:0.1;fill:none;stroke:#000000;stroke-width:0.99000001;stroke-dasharray:0.99000001, 0.99000001" />
        <path
           id="path41-6"
           d="M 2.6203015e-5,288.99999 H 128.00003"
           style="fill:none;stroke:#62a0ea;stroke-width:2"
           inkscape:connector-curvature="0" />
      </g>
      <g
         id="layer9">
        <g
           id="g54"
           style="enable-background:new"
           transform="matrix(0.25,0,0,0.25,0.5092392,225)">
          <path
             d="m -1263.6441,630.72422 c 0,-12.27851 4.2408,-22.5866 12.7214,-30.92435 8.4811,-8.48876 18.8552,-12.73334 31.1221,-12.73367 11.964,3.3e-4 22.1109,4.24491 30.4405,12.73367 8.4808,8.33775 12.7212,18.64584 12.7212,30.92435 0,11.97592 -4.2404,22.20826 -12.7212,30.69701 -8.3296,8.33775 -18.4765,12.50651 -30.4405,12.50626 -12.2669,2.5e-4 -22.641,-4.16851 -31.1221,-12.50626 -8.4806,-8.33717 -12.7214,-18.56942 -12.7214,-30.69701 m -2.5315,-197.16033 v 72.62829 c 92.8075,0 168.1872,75.49828 168.1872,168.45189 h 72.8935 c 0,-133.14977 -108.1402,-241.08018 -241.0807,-241.08018 z m 0.125,-158.91982 v 80.2821 c 176.2113,0 319.28598,143.21178 319.28598,319.59198 h 80.589 C -866.1752,453.72565 -1045.469,274.64407 -1266.05,274.64407 Z"
             id="path4311"
             style="font-style:normal;font-variant:normal;font-weight:bold;font-stretch:normal;font-size:13.58991337px;line-height:125%;font-family:'Bitstream Vera Serif';text-align:start;writing-mode:lr-tb;text-anchor:start;fill:#ffffff;fill-opacity:1;stroke:none;stroke-width:8.33333683"
             inkscape:connector-curvature="0"
             inkscape:transform-center-x="-142.37295"
             inkscape:transform-center-y="-6.7796642" />
        </g>
      </g>
    </g>
  </g>
</svg>
